img/svg/louis-vuitton-icon.svg

<svg width="203" height="22" viewBox="0 0 203 22" fill="none" xmlns="http://www.w3.org/2000/svg">
<path d="M202.38 1.89008V21.1082L189.199 7.33105V19.985H186.453V0.667114L199.659 14.4692V1.89008H202.38Z" fill="#20484F"/>
<path d="M171.924 1.51562C171.924 1.51562 169.253 1.54058 167.106 2.81347C167.106 2.81347 164.959 4.0614 163.711 6.20783C163.711 6.20783 162.437 8.32931 162.412 10.9999C162.412 10.9999 162.437 13.6455 163.686 15.742C163.686 15.742 164.959 17.8385 167.081 19.0615C167.081 19.0615 169.228 20.3094 171.924 20.3344C171.924 20.3344 174.545 20.3094 176.667 19.0365C176.667 19.0365 178.789 17.7886 180.037 15.6671C180.037 15.6671 181.31 13.5456 181.335 10.925C181.335 10.925 181.31 8.30435 180.037 6.18287C180.037 6.18287 178.789 4.0614 176.667 2.81347C176.667 2.81347 174.545 1.54058 171.924 1.51562ZM171.899 4.08636C171.899 4.08636 173.821 4.11131 175.319 5.00982C175.319 5.00982 176.817 5.90833 177.69 7.4308C177.69 7.4308 178.589 8.97823 178.589 10.95C178.589 10.95 178.564 12.8468 177.69 14.3942C177.69 14.3942 176.792 15.9167 175.269 16.8152C175.269 16.8152 173.771 17.7387 171.899 17.7387C171.899 17.7387 170.002 17.7137 168.479 16.8402C168.479 16.8402 166.956 15.9417 166.057 14.4192C166.057 14.4192 165.183 12.8718 165.159 10.95C165.159 10.95 165.183 9.00319 166.057 7.45576C166.057 7.45576 166.931 5.90833 168.454 5.00982C168.454 5.00982 169.977 4.11131 171.899 4.08636Z" fill="#20484F"/>
<path d="M155.772 4.43584V19.985H153.026V4.43584H148.882V1.86511H159.941V4.43584H155.772Z" fill="#20484F"/>
<path d="M146.311 4.43584H142.142V19.985H139.396V4.43584H135.251V1.86511H146.311V4.43584Z" fill="#20484F"/>
<path d="M130.558 1.86511V19.985H127.812V1.86511H130.558Z" fill="#20484F"/>
<path d="M121.421 1.86511V13.5208C121.421 13.5208 121.396 15.4925 120.548 17.015C120.548 17.015 119.674 18.5374 118.176 19.4359C118.176 19.4359 116.678 20.3095 114.756 20.3344C114.756 20.3344 112.809 20.3095 111.286 19.4359C111.286 19.4359 109.788 18.5374 108.914 17.015C108.914 17.015 108.066 15.4925 108.041 13.5208V1.86511H110.787V12.772C110.787 12.772 110.787 13.9451 110.912 14.6439C110.912 14.6439 111.036 15.3427 111.361 15.8918C111.361 15.8918 111.86 16.7654 112.759 17.2396C112.759 17.2396 113.658 17.7387 114.756 17.7387C114.756 17.7387 115.829 17.7387 116.728 17.2396C116.728 17.2396 117.602 16.7654 118.126 15.8918C118.126 15.8918 118.451 15.3427 118.575 14.6439L118.675 12.772V1.86511H121.421Z" fill="#20484F"/>
<path d="M87.6948 1.86511H90.6905L95.6833 14.4193L100.751 1.86511H103.747L95.6334 21.3328L87.6948 1.86511Z" fill="#20484F"/>
<path d="M71.7679 4.46086C71.7679 4.46086 71.1688 4.08648 70.2451 4.08648C70.2451 4.08648 69.0968 4.11144 68.3728 4.7354C68.3728 4.7354 67.6489 5.35936 67.6239 6.33275C67.6239 6.33275 67.5989 7.25621 68.4727 7.85522L68.922 8.15472L69.621 8.47918L71.3935 9.20298C71.3935 9.20298 73.5653 10.1015 74.5889 11.3744C74.5889 11.3744 75.6374 12.6722 75.6124 14.4692C75.6124 14.4692 75.6124 16.1664 74.8635 17.4892C74.8635 17.4892 74.1395 18.7871 72.8414 19.5608C72.8414 19.5608 71.5433 20.3095 69.8956 20.3345C69.8956 20.3345 67.4491 20.3095 65.9263 18.9368C65.9263 18.9368 64.4035 17.5391 64.0291 14.9934L66.8001 14.3444L66.9998 15.5674C66.9998 15.5674 67.1246 16.0167 67.3243 16.3411C67.3243 16.3411 67.6738 16.99 68.3728 17.3644C68.3728 17.3644 69.0718 17.7388 69.9206 17.7388C69.9206 17.7388 71.2187 17.7138 72.0425 16.8902C72.0425 16.8902 72.8664 16.0666 72.8913 14.7438C72.8913 14.7438 72.8664 13.1963 71.6431 12.3478C71.6431 12.3478 70.994 11.9235 70.295 11.6489L68.5725 10.9002C68.5725 10.9002 64.8279 9.35273 64.8529 6.33275C64.8529 6.33275 64.8529 4.93507 65.5768 3.86185C65.5768 3.86185 66.2758 2.78863 67.4991 2.16467C67.4991 2.16467 68.7223 1.54071 70.2701 1.51575C70.2701 1.51575 71.8928 1.51575 73.0661 2.23955C73.0661 2.23955 74.2643 2.96334 75.1631 4.56069L72.9662 5.88349C72.9662 5.88349 72.3671 4.86019 71.7679 4.46086Z" fill="#20484F"/>
<path d="M58.5617 1.86511V19.985H55.8157V1.86511H58.5617Z" fill="#20484F"/>
<path d="M46.6788 1.86511H49.4248V13.5208C49.4248 13.5208 49.3999 15.4925 48.5511 17.015C48.5511 17.015 47.6773 18.5374 46.1795 19.4359C46.1795 19.4359 44.6816 20.3095 42.7594 20.3344C42.7594 20.3344 40.8122 20.3095 39.2894 19.4359C39.2894 19.4359 37.7916 18.5374 36.9178 17.015C36.9178 17.015 36.069 15.4925 36.0441 13.5208V1.86511H38.7901V12.772C38.7901 12.772 38.7901 13.9451 38.9149 14.6439C38.9149 14.6439 39.0398 15.3427 39.3643 15.8918C39.3643 15.8918 39.8636 16.7654 40.7623 17.2396C40.7623 17.2396 41.661 17.7387 42.7594 17.7387C42.7594 17.7387 43.8329 17.7387 44.7316 17.2396C44.7316 17.2396 45.6053 16.7654 46.1296 15.8918C46.1296 15.8918 46.4541 15.3427 46.5789 14.6439L46.6788 12.772V1.86511Z" fill="#20484F"/>
<path d="M21.1656 1.51562C21.1656 1.51562 18.4945 1.54058 16.3475 2.81347C16.3475 2.81347 14.2006 4.0614 12.9524 6.20783C12.9524 6.20783 11.6793 8.32931 11.6543 10.9999C11.6543 10.9999 11.6793 13.6455 12.9275 15.742C12.9275 15.742 14.2006 17.8385 16.3226 19.0615C16.3226 19.0615 18.4695 20.3094 21.1656 20.3344C21.1656 20.3344 23.7868 20.3094 25.9088 19.0365C25.9088 19.0365 28.0307 17.7886 29.2789 15.6671C29.2789 15.6671 30.5521 13.5456 30.5771 10.925C30.5771 10.925 30.5521 8.30435 29.2789 6.18287C29.2789 6.18287 28.0307 4.0614 25.9088 2.81347C25.9088 2.81347 23.7868 1.54058 21.1656 1.51562ZM21.1406 4.08636C21.1406 4.08636 23.0629 4.11131 24.5607 5.00982C24.5607 5.00982 26.0586 5.90833 26.9323 7.4308C26.9323 7.4308 27.8061 8.97823 27.831 10.95C27.831 10.95 27.8061 12.8468 26.9323 14.3942C26.9323 14.3942 26.0336 15.9167 24.5108 16.8152C24.5108 16.8152 23.013 17.7387 21.1406 17.7387C21.1406 17.7387 19.2434 17.7137 17.7206 16.8402C17.7206 16.8402 16.1978 15.9417 15.2991 14.4192C15.2991 14.4192 14.4253 12.8718 14.4003 10.95C14.4003 10.95 14.4253 9.00319 15.2991 7.45576C15.2991 7.45576 16.1728 5.90833 17.6956 5.00982C17.6956 5.00982 19.2184 4.11131 21.1406 4.08636Z" fill="#20484F"/>
<path d="M3.36617 1.86511V17.3893H8.68352V19.985H0.620117V1.86511H3.36617Z" fill="#20484F"/>
</svg>

<svg width="203" height="22" fill="none" xmlns="http://www.w3.org/2000/svg"><path d="M202.38 1.89v19.218L189.199 7.331v12.654h-2.746V.667l13.206 13.802V1.89h2.721ZM171.924 1.516s-2.671.025-4.818 1.297c0 0-2.147 1.248-3.395 3.395 0 0-1.274 2.121-1.299 4.792 0 0 .025 2.646 1.274 4.742 0 0 1.273 2.096 3.395 3.32 0 0 2.147 1.247 4.843 1.272 0 0 2.621-.025 4.743-1.297 0 0 2.122-1.248 3.37-3.37 0 0 1.273-2.121 1.298-4.742 0 0-.025-2.62-1.298-4.742 0 0-1.248-2.122-3.37-3.37 0 0-2.122-1.272-4.743-1.297Zm-.025 2.57s1.922.025 3.42.924c0 0 1.498.898 2.371 2.42 0 0 .899 1.548.899 3.52 0 0-.025 1.897-.899 3.444 0 0-.898 1.523-2.421 2.421 0 0-1.498.924-3.37.924 0 0-1.897-.025-3.42-.899 0 0-1.523-.898-2.422-2.42 0 0-.874-1.548-.898-3.47 0 0 .024-1.947.898-3.494 0 0 .874-1.548 2.397-2.446 0 0 1.523-.899 3.445-.924ZM155.772 4.436v15.549h-2.746V4.435h-4.144v-2.57h11.059v2.57h-4.169ZM146.311 4.436h-4.169v15.549h-2.746V4.435h-4.145v-2.57h11.06v2.57ZM130.558 1.865v18.12h-2.746V1.865h2.746ZM121.421 1.865v11.656s-.025 1.971-.873 3.494c0 0-.874 1.522-2.372 2.42 0 0-1.498.875-3.42.9 0 0-1.947-.026-3.47-.9 0 0-1.498-.898-2.372-2.42 0 0-.848-1.523-.873-3.494V1.865h2.746v10.907s0 1.173.125 1.872c0 0 .124.699.449 1.248 0 0 .499.873 1.398 1.348 0 0 .899.499 1.997.499 0 0 1.073 0 1.972-.5 0 0 .874-.474 1.398-1.347 0 0 .325-.55.449-1.248l.1-1.872V1.865h2.746ZM87.695 1.865h2.996l4.992 12.554 5.068-12.554h2.996l-8.114 19.468-7.938-19.468ZM71.768 4.46s-.6-.374-1.523-.374c0 0-1.148.025-1.872.65 0 0-.724.623-.75 1.597 0 0-.024.923.85 1.522l.449.3.699.324 1.773.724s2.171.899 3.195 2.171c0 0 1.048 1.298 1.023 3.095 0 0 0 1.697-.748 3.02 0 0-.725 1.298-2.023 2.072 0 0-1.298.748-2.945.773 0 0-2.447-.024-3.97-1.397 0 0-1.523-1.398-1.897-3.944l2.771-.649.2 1.223s.125.45.324.774c0 0 .35.649 1.049 1.023 0 0 .699.375 1.548.375 0 0 1.298-.025 2.121-.849 0 0 .824-.823.85-2.146 0 0-.026-1.548-1.249-2.396 0 0-.649-.425-1.348-.7l-1.722-.748s-3.745-1.547-3.72-4.567c0 0 0-1.398.724-2.471 0 0 .699-1.073 1.922-1.697 0 0 1.223-.624 2.771-.65 0 0 1.623 0 2.796.725 0 0 1.198.723 2.097 2.32l-2.197 1.323s-.599-1.023-1.198-1.422ZM58.562 1.865v18.12h-2.746V1.865h2.746ZM46.679 1.865h2.746v11.656s-.025 1.971-.874 3.494c0 0-.874 1.522-2.372 2.42 0 0-1.497.875-3.42.9 0 0-1.947-.026-3.47-.9 0 0-1.497-.898-2.371-2.42 0 0-.849-1.523-.874-3.494V1.865h2.746v10.907s0 1.173.125 1.872c0 0 .125.699.45 1.248 0 0 .499.873 1.397 1.348 0 0 .899.499 1.997.499 0 0 1.074 0 1.973-.5 0 0 .873-.474 1.398-1.347 0 0 .324-.55.449-1.248l.1-1.872V1.865ZM21.166 1.516s-2.672.025-4.819 1.297c0 0-2.146 1.248-3.395 3.395 0 0-1.273 2.121-1.298 4.792 0 0 .025 2.646 1.274 4.742 0 0 1.273 2.096 3.395 3.32 0 0 2.146 1.247 4.843 1.272 0 0 2.62-.025 4.743-1.297 0 0 2.122-1.248 3.37-3.37 0 0 1.273-2.121 1.298-4.742 0 0-.025-2.62-1.298-4.742 0 0-1.248-2.122-3.37-3.37 0 0-2.122-1.272-4.743-1.297Zm-.025 2.57s1.922.025 3.42.924c0 0 1.498.898 2.371 2.42 0 0 .874 1.548.899 3.52 0 0-.025 1.897-.899 3.444 0 0-.898 1.523-2.421 2.421 0 0-1.498.924-3.37.924 0 0-1.898-.025-3.42-.899 0 0-1.523-.898-2.422-2.42 0 0-.874-1.548-.899-3.47 0 0 .025-1.947.9-3.494 0 0 .873-1.548 2.396-2.446 0 0 1.522-.899 3.445-.924ZM3.366 1.865V17.39h5.318v2.596H.62V1.865h2.746Z" fill="#20484F"/></svg>
